svgs/materials/communication/key_off.svg

<svg xmlns="http://www.w3.org/2000/svg" enable-background="new 0 0 24 24" height="24" viewBox="0 0 24 24" width="24"><g><rect fill="none" height="24" width="24"/></g><g><path d="M16.91,14.09L17,14l2,2l4-4.04L21,10h-8.17L16.91,14.09z M3.98,6.81C2.2,7.85,1,9.79,1,12c0,3.31,2.69,6,6,6 c2.21,0,4.15-1.2,5.18-2.99l7.59,7.59l1.41-1.41L2.81,2.81L1.39,4.22L3.98,6.81z M9.91,12.74C9.58,14.03,8.4,15,7,15 c-1.65,0-3-1.35-3-3c0-1.4,0.97-2.58,2.26-2.91L9.91,12.74z"/></g></svg>

<?xml version="1.0" encoding="UTF-8" standalone="no"?>
<svg
   enable-background="new 0 0 24 24"
   height="24"
   viewBox="0 0 24 24"
   width="24"
   version="1.1"
   id="svg10"
   sodipodi:docname="key_off.svg"
   inkscape:version="1.2 (dc2aeda, 2022-05-15)"
   xmlns:inkscape="http://www.inkscape.org/namespaces/inkscape"
   xmlns:sodipodi="http://sodipodi.sourceforge.net/DTD/sodipodi-0.dtd"
   xmlns="http://www.w3.org/2000/svg"
   xmlns:svg="http://www.w3.org/2000/svg">
  <defs
     id="defs14" />
  <sodipodi:namedview
     id="namedview12"
     pagecolor="#ffffff"
     bordercolor="#000000"
     borderopacity="0.25"
     inkscape:showpageshadow="2"
     inkscape:pageopacity="0.0"
     inkscape:pagecheckerboard="0"
     inkscape:deskcolor="#d1d1d1"
     showgrid="false"
     inkscape:zoom="9.8333333"
     inkscape:cx="5.4915254"
     inkscape:cy="12"
     inkscape:window-width="1309"
     inkscape:window-height="456"
     inkscape:window-x="0"
     inkscape:window-y="25"
     inkscape:window-maximized="0"
     inkscape:current-layer="svg10" />
  <path
     id="rect2"
     style="fill:none"
     d="M 0,0 H 24 V 24 H 0 Z" />
  <path
     d="M 16.91,14.09 17,14 19,16 23,11.96 21,10 H 12.83 Z M 3.98,6.81 C 2.2,7.85 1,9.79 1,12 c 0,3.31 2.69,6 6,6 2.21,0 4.15,-1.2 5.18,-2.99 L 19.77,22.6 21.18,21.19 2.81,2.81 1.39,4.22 Z m 5.93,5.93 C 9.58,14.03 8.4,15 7,15 5.35,15 4,13.65 4,12 4,10.6 4.97,9.42 6.26,9.09 Z"
     id="path6" />
</svg>
